X:2659
T:Hot Punch
O:england
R:Jig
C:Trad., arr. Hamish Moore
S:Hamish Moore's School of Piping
M:6/8
L:1/8
K:D
{g}f2d {g}dcd|{g}B2d {g}A2d|{g}f2d {g}faf|{g}d3 {g}def|
{a}g2e {gef}e2{GdG}e|{G}c2e {GdG}e2d|{g}c2A {g}cec|{G}A3 -a2g|
{g}f2d {g}dcd|{g}B2d {g}A2d|{g}f2d {g}faf|{g}d3 {g}A3|
a2f {a}g2e|{g}f2d {g}e2d|{g}cec {g}AB{GdG}a|f2d {g}faf|
{g}d3 a2g||{g}f2a {g}a2{GdG}a|{g}f2a {g}a2{GdG}a|f2d {g}faf|
{g}d3 {g}def|{a}g2e {gef}e2{GdG}e|{g}c2e {gef}e2d|{g}c2A {g}cec|
{G}-A3 -a2g|{g}f2a {g}a2{GdG}a|{g}f2a {g}a2{GdG}a|f2d {g}faf|
{g}d3 a2g|a2{GdG}a g2{GdG}g|f2{GdG}f {g}e2d|{g}cec {g}AB{GdG}c|
{g}d3 a2g||


